images/icon-twitter.svg

<?xml version="1.0" encoding="UTF-8" standalone="no"?>
<svg width="18px" height="15px" viewBox="0 0 18 15" version="1.1" xmlns="http://www.w3.org/2000/svg" xmlns:xlink="http://www.w3.org/1999/xlink">
    <!-- Generator: Sketch 3.8.3 (29802) - http://www.bohemiancoding.com/sketch -->
    <title>icon-twitter</title>
    <desc>Created with Sketch.</desc>
    <defs></defs>
    <g id="Symbols" stroke="none" stroke-width="1" fill="none" fill-rule="evenodd">
        <g id="icon-twitter" fill="#00586F">
            <path d="M17.5,1.67078024 C16.8561121,1.95416683 16.164216,2.14575929 15.4378818,2.23183614 C16.1791946,1.79090668 16.7485095,1.0925725 17.016524,0.260580988 C16.3228355,0.668921941 15.55451,0.965394752 14.73664,1.12522453 C14.0817422,0.432734688 13.1486521,0 12.1160247,0 C10.1330883,0 8.52557701,1.59537565 8.52557701,3.56300986 C8.52557701,3.84233083 8.55732653,4.11421933 8.61852116,4.37499089 C5.63464282,4.2264051 2.98912725,2.80788402 1.21832364,0.652214774 C0.909277955,1.17845878 0.732223198,1.79052553 0.732223198,2.44350261 C0.732223198,3.6796424 1.3660613,4.77024562 2.32942866,5.40924712 C1.74091042,5.39076125 1.18727825,5.23042326 0.70322616,4.96355326 C0.702970116,4.9784182 0.702906105,4.99334665 0.702906105,5.00833864 C0.702906105,6.73470356 1.94049709,8.17482326 3.58295841,8.50216939 C3.28165807,8.58354537 2.96448297,8.62706023 2.6370661,8.62706023 C2.4056659,8.62706023 2.18079484,8.60476283 1.96155675,8.56315373 C2.41846812,9.97875264 3.74439445,11.0088797 5.31541936,11.0377202 C4.08666191,11.9933321 2.53861699,12.5629004 0.856468781,12.5629004 C0.566690442,12.5629004 0.280880793,12.5460662 0,12.51316 C1.58894802,13.5241025 3.47612385,14.1139353 5.50367607,14.1139353 C12.1076393,14.1139353 15.7188906,8.68467772 15.7188906,3.97617874 C15.7188906,3.82168509 15.71537,3.66801727 15.7085208,3.5152388 C16.4099546,3.01288033 17.0186364,2.38531339 17.5,1.67078024"></path>
        </g>
    </g>
</svg>

<svg height="15" viewBox="0 0 18 15" width="18" xmlns="http://www.w3.org/2000/svg"><path d="m17.5 1.67078024c-.6438879.28338659-1.335784.47497905-2.0621182.5610559.7413128-.44092946 1.3106277-1.13926364 1.5786422-1.97125515-.6936885.40834095-1.462014.70481376-2.279884.86464354-.6548978-.69248984-1.5879879-1.12522453-2.6206153-1.12522453-1.9829364 0-3.59044769 1.59537565-3.59044769 3.56300986 0 .27932097.03174952.55120947.09294415.81198103-2.98387834-.14858579-5.62939391-1.56710687-7.40019752-3.72277612-.30904568.52624401-.48610044 1.13831076-.48610044 1.79128784 0 1.23613979.6338381 2.32674301 1.59720546 2.96574451-.58851824-.01848587-1.14215041-.17882386-1.6262025-.44569386-.00025604.01486494-.00032005.02979339-.00032005.04478538 0 1.72636492 1.23759098 3.16648462 2.8800523 3.49383075-.30130034.08137598-.61847544.12489084-.94589231.12489084-.2314002 0-.45627126-.0222974-.67550935-.0639065.45691137 1.41559891 1.7828377 2.44572597 3.35386261 2.47456647-1.22875745.9556119-2.77680237 1.5251802-4.45895058 1.5251802-.28977834 0-.57558799-.0168342-.85646878-.0497404 1.58894802 1.0109425 3.47612385 1.6007753 5.50367607 1.6007753 6.60396323 0 10.21521453-5.42925758 10.21521453-10.13775656 0-.15449365-.0035206-.30816147-.0103698-.46093994.7014338-.50235847 1.3101156-1.12992541 1.7914792-1.84445856" fill="#00586f" fill-rule="evenodd"/></svg>
